X: 37124
T: Sine Bhan
R: waltz
M: 3/4
K: Dmajor
"D"D2D "A"E2F|"G"B2A "F#m"A3|"D"F2E "Bm"FB2|"F#m"A2F "A"E3|
"D"D2D "A"E2F|"G"B2A "F#m"A3|"D"D2D "Bm"F2F|"A7"E3 "D"D3|
"D"D2D "A"E2F|"Bm"d2B "F#m"BA2|"Bm"d2B "F#m"BA2|"D"d2F "A7"E3|
"D"D2D "A"E2F|"G"d2B "F#m"BA2|"D"D2D "Bm"F2F|"A7"E3 "D"D3||

